resources/haticons/SVG/upload3.svg

<!-- Generated by IcoMoon.io -->
<svg version="1.1" xmlns="http://www.w3.org/2000/svg" width="24" height="24" viewBox="0 0 24 24">
<title>upload3</title>
<path d="M11.25 16.5h-11.25v6h22.5v-6h-11.25zM21 19.5h-3v-1.5h3v1.5zM5.25 7.5l6-6 6 6h-3.75v7.5h-4.5v-7.5z"></path>
</svg>

<svg xmlns="http://www.w3.org/2000/svg" width="24" height="24"><path d="M11.25 16.5H0v6h22.5v-6H11.25zm9.75 3h-3V18h3v1.5zM5.25 7.5l6-6 6 6H13.5V15H9V7.5z"/></svg>
